X: 1
T:The fish pond
C:anon.
O:Hungary
Z:Transcribed by Frank Nordberg - http://www.musicaviva.com
M:4/4
L:1/4
Q:84
K:A
A/E/A/B/ c/B/B|c>AA2|e/e/c/A/ f/f/e|e>BB2||
|:e/e/c/A/ f/f/e|B/c/d/e/B2|d/c/d/e/ c/A/B|c>AA2:|
